src/images/like_inactive.svg

<svg width="30" height="30" viewBox="0 0 30 30" fill="none" xmlns="http://www.w3.org/2000/svg">
<path d="M14.6524 11.8979L15.0142 12.2477L15.3617 11.8837C16.0822 11.1289 16.9782 10.5 18.1818 10.5C20.1019 10.5 21.5 12.0286 21.5 14C21.5 14.9368 21.0747 15.7359 20.3847 16.405L15 21.3228L9.60992 16.4L9.59988 16.3909L9.58936 16.3823C8.88561 15.8064 8.5 14.9677 8.5 14C8.5 12.0286 9.89813 10.5 11.8182 10.5C13.0133 10.5 13.9085 11.1785 14.6524 11.8979Z" stroke="#E8E8E8"/>
</svg>

<svg width="30" height="30" fill="none" xmlns="http://www.w3.org/2000/svg"><path d="m14.652 11.898.362.35.348-.364c.72-.755 1.616-1.384 2.82-1.384 1.92 0 3.318 1.529 3.318 3.5 0 .937-.425 1.736-1.115 2.405L15 21.323 9.61 16.4l-.01-.01-.01-.008C8.885 15.806 8.5 14.968 8.5 14c0-1.971 1.398-3.5 3.318-3.5 1.195 0 2.09.678 2.834 1.398Z" stroke="#E8E8E8"/></svg>
